assets/guide.svg

<svg width="260" height="192" viewBox="0 0 260 192" fill="none" xmlns="http://www.w3.org/2000/svg">
<g clip-path="url(#clip0_42_92)">
<rect x="-48" y="8" width="64" height="64" rx="2" stroke="#F72E1C" stroke-width="2"/>
<rect x="40" y="8" width="64" height="64" rx="2" stroke="#F72E1C" stroke-width="2"/>
<path d="M85 121C85 119.895 85.8954 119 87 119H149V183H87C85.8954 183 85 182.105 85 181V121Z" stroke="#F72E1C" stroke-width="2"/>
<rect x="149" y="119" width="64" height="64" stroke="#F72E1C" stroke-width="2"/>
<rect x="213" y="119" width="64" height="64" stroke="#F72E1C" stroke-width="2"/>
<rect x="128" y="8" width="64" height="64" rx="2" stroke="#F72E1C" stroke-width="2"/>
<path fill-rule="evenodd" clip-rule="evenodd" d="M117 39V36H115V39H112V41H115V44H117V41H120V39H117Z" fill="#F72E1C"/>
<path fill-rule="evenodd" clip-rule="evenodd" d="M29 39V36H27V39H24V41H27V44H29V41H32V39H29Z" fill="#F72E1C"/>
<path d="M200 40H214C215.105 40 216 40.8954 216 42V94C216 95.1046 215.105 96 214 96H62.5C61.3954 96 60.5 96.8954 60.5 98V150C60.5 151.105 61.3954 152 62.5 152H76" stroke="#F72E1C" stroke-width="2"/>
<path d="M72 157L77 152L72 147" stroke="#F72E1C" stroke-width="2" stroke-linejoin="bevel"/>
<path d="M119.287 163.88H126.407V166H109.327V163.88H116.887V140.56L109.727 145.12L108.647 143.24L117.047 137.88H119.287V163.88Z" fill="#1B1D42"/>
<path d="M172.358 163.88H191.678V166H169.958V159.8C169.958 155.88 171.198 154.68 176.678 153.16L183.918 151.2C188.278 150 188.918 149.36 188.918 146.24V145.04C188.918 140.96 187.398 139.6 182.958 139.6H178.678C174.198 139.6 172.718 140.96 172.718 144.96V145.2L170.318 144.92V144.68C170.318 139.6 172.598 137.48 178.158 137.48H183.478C189.038 137.48 191.318 139.6 191.318 144.76V146.8C191.318 150.76 190.198 151.88 184.678 153.4L177.438 155.36C173.118 156.56 172.358 157.28 172.358 160.28V163.88Z" fill="#1B1D42"/>
<path d="M167.798 40.4C170.718 41.36 171.838 43.28 171.838 47V48.12C171.838 53.28 169.558 55.4 163.998 55.4H157.958C152.398 55.4 150.118 53.28 150.118 48.2V47.96L152.518 47.68V47.92C152.518 51.92 153.998 53.28 158.478 53.28H163.478C167.958 53.28 169.438 51.92 169.438 47.84V46.96C169.438 42.92 167.998 41.64 163.478 41.64H157.598V39.52H162.878C167.518 39.52 168.838 38.48 168.838 34.68V34.04C168.838 29.96 167.318 28.6 162.878 28.6H158.678C154.198 28.6 152.678 29.96 152.678 33.96V34.2L150.318 33.92C150.278 33.84 150.278 33.8 150.278 33.68C150.278 28.6 152.598 26.48 158.158 26.48H163.398C168.958 26.48 171.238 28.6 171.238 33.76V34.64C171.238 37.68 170.278 39.4 167.798 40.4Z" fill="#1B1D42"/>
<path d="M62.3581 52.88H81.6781V55H59.9581V48.8C59.9581 44.88 61.1981 43.68 66.6781 42.16L73.9181 40.2C78.2781 39 78.9181 38.36 78.9181 35.24V34.04C78.9181 29.96 77.3981 28.6 72.9581 28.6H68.6781C64.1981 28.6 62.7181 29.96 62.7181 33.96V34.2L60.3181 33.92V33.68C60.3181 28.6 62.5981 26.48 68.1581 26.48H73.4781C79.0381 26.48 81.3181 28.6 81.3181 33.76V35.8C81.3181 39.76 80.1981 40.88 74.6781 42.4L67.4381 44.36C63.1181 45.56 62.3581 46.28 62.3581 49.28V52.88Z" fill="#1B1D42"/>
<path d="M252.798 151.4C255.718 152.36 256.838 154.28 256.838 158V159.12C256.838 164.28 254.558 166.4 248.998 166.4H242.958C237.398 166.4 235.118 164.28 235.118 159.2V158.96L237.518 158.68V158.92C237.518 162.92 238.998 164.28 243.478 164.28H248.478C252.958 164.28 254.438 162.92 254.438 158.84V157.96C254.438 153.92 252.998 152.64 248.478 152.64H242.598V150.52H247.878C252.518 150.52 253.838 149.48 253.838 145.68V145.04C253.838 140.96 252.318 139.6 247.878 139.6H243.678C239.198 139.6 237.678 140.96 237.678 144.96V145.2L235.318 144.92C235.278 144.84 235.278 144.8 235.278 144.68C235.278 139.6 237.598 137.48 243.158 137.48H248.398C253.958 137.48 256.238 139.6 256.238 144.76V145.64C256.238 148.68 255.278 150.4 252.798 151.4Z" fill="#1B1D42"/>
</g>
<defs>
<clipPath id="clip0_42_92">
<rect width="260" height="192" fill="white"/>
</clipPath>
</defs>
</svg>

<svg fill="none" height="192" viewBox="0 0 260 192" width="260" xmlns="http://www.w3.org/2000/svg" xmlns:xlink="http://www.w3.org/1999/xlink"><clipPath id="a"><path d="m0 0h260v192h-260z"/></clipPath><g clip-path="url(#a)"><g stroke="#f72e1c" stroke-width="2"><rect height="64" rx="2" width="64" x="-48" y="8"/><rect height="64" rx="2" width="64" x="40" y="8"/><path d="m85 121c0-1.105.8954-2 2-2h62v64h-62c-1.1046 0-2-.895-2-2z"/><path d="m149 119h64v64h-64z"/><path d="m213 119h64v64h-64z"/><rect height="64" rx="2" width="64" x="128" y="8"/></g><path clip-rule="evenodd" d="m117 39v-3h-2v3h-3v2h3v3h2v-3h3v-2z" fill="#f72e1c" fill-rule="evenodd"/><path clip-rule="evenodd" d="m29 39v-3h-2v3h-3v2h3v3h2v-3h3v-2z" fill="#f72e1c" fill-rule="evenodd"/><path d="m200 40h14c1.105 0 2 .8954 2 2v52c0 1.1046-.895 2-2 2h-151.5c-1.1046 0-2 .8954-2 2v52c0 1.105.8954 2 2 2h13.5" stroke="#f72e1c" stroke-width="2"/><path d="m72 157 5-5-5-5" stroke="#f72e1c" stroke-linejoin="bevel" stroke-width="2"/><path d="m119.287 163.88h7.12v2.12h-17.08v-2.12h7.56v-23.32l-7.16 4.56-1.08-1.88 8.4-5.36h2.24z" fill="#1b1d42"/><path d="m172.358 163.88h19.32v2.12h-21.72v-6.2c0-3.92 1.24-5.12 6.72-6.64l7.24-1.96c4.36-1.2 5-1.84 5-4.96v-1.2c0-4.08-1.52-5.44-5.96-5.44h-4.28c-4.48 0-5.96 1.36-5.96 5.36v.24l-2.4-.28v-.24c0-5.08 2.28-7.2 7.84-7.2h5.32c5.56 0 7.84 2.12 7.84 7.28v2.04c0 3.96-1.12 5.08-6.64 6.6l-7.24 1.96c-4.32 1.2-5.08 1.92-5.08 4.92z" fill="#1b1d42"/><path d="m167.798 40.4c2.92.96 4.04 2.88 4.04 6.6v1.12c0 5.16-2.28 7.28-7.84 7.28h-6.04c-5.56 0-7.84-2.12-7.84-7.2v-.24l2.4-.28v.24c0 4 1.48 5.36 5.96 5.36h5c4.48 0 5.96-1.36 5.96-5.44v-.88c0-4.04-1.44-5.32-5.96-5.32h-5.88v-2.12h5.28c4.64 0 5.96-1.04 5.96-4.84v-.64c0-4.08-1.52-5.44-5.96-5.44h-4.2c-4.48 0-6 1.36-6 5.36v.24l-2.36-.28c-.04-.08-.04-.12-.04-.24 0-5.08 2.32-7.2 7.88-7.2h5.24c5.56 0 7.84 2.12 7.84 7.28v.88c0 3.04-.96 4.76-3.44 5.76z" fill="#1b1d42"/><path d="m62.3581 52.88h19.32v2.12h-21.72v-6.2c0-3.92 1.24-5.12 6.72-6.64l7.24-1.96c4.36-1.2 5-1.84 5-4.96v-1.2c0-4.08-1.52-5.44-5.96-5.44h-4.28c-4.48 0-5.96 1.36-5.96 5.36v.24l-2.4-.28v-.24c0-5.08 2.28-7.2 7.84-7.2h5.32c5.56 0 7.84 2.12 7.84 7.28v2.04c0 3.96-1.12 5.08-6.64 6.6l-7.24 1.96c-4.32 1.2-5.08 1.92-5.08 4.92z" fill="#1b1d42"/><path d="m252.798 151.4c2.92.96 4.04 2.88 4.04 6.6v1.12c0 5.16-2.28 7.28-7.84 7.28h-6.04c-5.56 0-7.84-2.12-7.84-7.2v-.24l2.4-.28v.24c0 4 1.48 5.36 5.96 5.36h5c4.48 0 5.96-1.36 5.96-5.44v-.88c0-4.04-1.44-5.32-5.96-5.32h-5.88v-2.12h5.28c4.64 0 5.96-1.04 5.96-4.84v-.64c0-4.08-1.52-5.44-5.96-5.44h-4.2c-4.48 0-6 1.36-6 5.36v.24l-2.36-.28c-.04-.08-.04-.12-.04-.24 0-5.08 2.32-7.2 7.88-7.2h5.24c5.56 0 7.84 2.12 7.84 7.28v.88c0 3.04-.96 4.76-3.44 5.76z" fill="#1b1d42"/></g></svg>
